X:1
T:Mother Kilwinning
T:Mother Kilwinning
T:Carl Volti
C:Carl Volti
L:1/8
Q:1/8=128
M:4/4
K:D
V:1 treble 
V:1
|: d2 A>G F<D D>F | B,<E E>D C<A, A,>C | D>F E>G F>A G>B | A<d A>G F<D-DA | d2 A>G F<D D>F | %5
 B,<E E>D C<A, A,>C | D>F E>G F>A G>B | A<d A>G F<D-Dd | f>d A>F G>B A>F | G<B A>F G<E E>c | %10
 f>d A>F G>B A>F | G<B A>G F<D-Dd | f>d A>F G>B A>F | G<B A>F G<E E>F | D>F E>G F>A G>B | %15
 A<d c>e d<D- D2 :| %16

